X:21
T:the Crusaders
B:Goulding and d'Almaine's Twenty-four Country Dances For the year 1826.
L:1/16
M:2/4
N:Repeat marks i 1st and last bars are 4 dots vertically.
N:Those in the middle are the usual 2
O:England
Z:Richard Robinson <URL:http://www.qualmograph.org.uk/contact.html>
%%Dancenotes:Change sides, back again, lead down the middle & pousette
%%UploadedFrom:Goulding_and_dAlmaine.abc
F:http://richardrobinson.tunebook.org.uk/Tune/3567
K:C
ed |: S \
c2F2F2 ed | c2G2G2 (gf) | e2c2 c2e2 | dcBc d2 ed |\
c2G2G2 ed | c2G2G2 gf | e2c2 d2B2 | c4 z2 ::
Bc |\
d2de f2d2 | e2ef g2c2 | d2de fedc | B2c2d2 Bc |\
d2de f2d2 | e2e^f g2e2 | d3e dBcA | G2G2A2B2 S !D.C.! :|

